;FLAVOR:Marlin
;TIME:4267
;Filament used: 4.57838m
;Layer height: 0.24
;Generated with Cura_SteamEngine 3.0.2
M190 S60
M104 S200
M109 S200
M82 ; absolute extrusion mode
G21 ;metric values
G90 ;absolute Positioning
G28 ; home all axes
G1 Z5 F3000 ; lift
G1 X20 Y2 F1500 ; avoid binder clips
G1 Z0.2 F3000 ; get ready to prime
G92 E0 ; reset extrusion distance
G1 X120 E10 F600 ; prime nozzle
G1 X150 F5000 ; quick wipe
;LAYER_COUNT:63
;LAYER:0
M107
M204 S5000
M205 X30 Y30
G0 F3000 X118.873 Y149.188 Z0.2
M204 S500
M205 X20 Y20
;TYPE:SKIRT
G1 F1500 X119.413 Y148.858 E0.02105
G1 X119.99 Y148.6 E0.04207
G1 X120.832 Y148.367 E0.07113
G1 X121.075 Y148.322 E0.07935
G1 X121.702 Y148.246 E0.10035
G1 X122.334 Y148.25 E0.12138
G1 X123.244 Y148.399 E0.15205
G1 X123.467 Y148.457 E0.15971
G1 X124.067 Y148.654 E0.18071
G1 X124.638 Y148.926 E0.20175
G1 X125.17 Y149.268 E0.22278
G1 X125.654 Y149.674 E0.2438
G1 X126.208 Y150.296 E0.2715
G1 X126.37 Y150.512 E0.28048
G1 X126.717 Y151.041 E0.30152
G1 X126.994 Y151.609 E0.32254
G1 X127.197 Y152.207 E0.34355
G1 X127.323 Y152.827 E0.36459
G1 X127.37 Y153.51 E0.38736
G1 X127.378 Y172.554 E1.02076
G1 X127.562 Y172.641 E1.02753
G1 X128.094 Y172.981 E1.04853
G1 X128.674 Y173.478 E1.07394
G1 X128.791 Y173.595 E1.07944
G1 X129.208 Y174.07 E1.10046
G1 X129.563 Y174.593 E1.12149
G1 X129.849 Y175.157 E1.14252
G1 X130.061 Y175.752 E1.16353
G1 X130.197 Y176.37 E1.18458
G1 X130.255 Y177.13 E1.20993
G1 X130.259 Y191.896 E1.70105
G1 X130.219 Y192.527 E1.72208
G1 X130.1 Y193.147 E1.74307
G1 X129.904 Y193.748 E1.7641
G1 X129.633 Y194.319 E1.78512
G1 X129.292 Y194.852 E1.80617
G1 X128.795 Y195.433 E1.8316
G1 X128.678 Y195.55 E1.8371
G1 X128.203 Y195.967 E1.85812
G1 X127.68 Y196.322 E1.87915
G1 X127.116 Y196.608 E1.90018
G1 X126.521 Y196.82 E1.92119
G1 X125.903 Y196.956 E1.94223
G1 X125.142 Y197.014 E1.96762
G1 X118.776 Y197.014 E2.17935
G1 X118.145 Y196.974 E2.20038
G1 X117.524 Y196.855 E2.22141
G1 X116.924 Y196.658 E2.24242
G1 X116.352 Y196.387 E2.26347
G1 X115.82 Y196.047 E2.28447
G1 X115.24 Y195.55 E2.30987
G1 X115.123 Y195.433 E2.31537
G1 X114.706 Y194.958 E2.3364
G1 X114.351 Y194.435 E2.35742
G1 X114.065 Y193.871 E2.37845
G1 X113.853 Y193.276 E2.39946
G1 X113.717 Y192.658 E2.42051
G1 X113.659 Y191.897 E2.44589
G1 X113.66 Y177.131 E2.93701
G1 X113.7 Y176.5 E2.95804
G1 X113.819 Y175.879 E2.97907
G1 X114.016 Y175.278 E3.00011
G1 X114.287 Y174.707 E3.02113
G1 X114.628 Y174.175 E3.04215
G1 X115.124 Y173.595 E3.06753
G1 X115.241 Y173.478 E3.07303
G1 X115.716 Y173.061 E3.09406
G1 X116.239 Y172.706 E3.11508
G1 X116.543 Y172.552 E3.12641
G1 X116.567 Y153.436 E3.76222
G1 X116.608 Y152.805 E3.78325
G1 X116.728 Y152.184 E3.80428
G1 X116.925 Y151.584 E3.82529
G1 X117.197 Y151.013 E3.84632
G1 X117.538 Y150.481 E3.86734
G1 X117.944 Y149.996 E3.88838
G1 X118.205 Y149.741 E3.90051
G1 X118.38 Y149.582 E3.90838
G1 X118.873 Y149.188 E3.92937
M204 S5000
M205 X30 Y30
G0 F3000 X119.123 Y149.501
M204 S500
M205 X20 Y20
G1 F1500 X119.643 Y149.19 E3.94952
G1 X120.2 Y148.949 E3.96971
G1 X120.904 Y148.76 E3.99395
G1 X121.147 Y148.715 E4.00217
G1 X121.75 Y148.644 E4.02237
G1 X122.356 Y148.653 E4.04252
G1 X123.143 Y148.786 E4.06907
G1 X123.366 Y148.844 E4.07673
G1 X123.941 Y149.035 E4.09689
G1 X124.487 Y149.3 E4.11707
G1 X124.992 Y149.634 E4.13721
G1 X125.45 Y150.032 E4.15739
G1 X125.888 Y150.536 E4.1796
G1 X126.05 Y150.752 E4.18858
G1 X126.381 Y151.26 E4.20875
G1 X126.642 Y151.807 E4.2289
G1 X126.829 Y152.384 E4.24908
G1 X126.939 Y152.98 E4.26924
G1 X126.97 Y153.51 E4.28689
G1 X126.978 Y172.803 E4.92858
G1 X127.454 Y173.04 E4.94627
G1 X127.957 Y173.379 E4.96644
G1 X128.391 Y173.761 E4.98567
G1 X128.508 Y173.878 E4.99118
G1 X128.907 Y174.334 E5.01133
G1 X129.243 Y174.839 E5.0315
G1 X129.51 Y175.383 E5.05166
G1 X129.703 Y175.958 E5.07183
G1 X129.819 Y176.553 E5.09199
G1 X129.855 Y177.13 E5.11122
G1 X129.859 Y191.896 E5.60234
G1 X129.819 Y192.501 E5.62251
G1 X129.7 Y193.095 E5.64266
G1 X129.504 Y193.669 E5.66283
G1 X129.234 Y194.212 E5.683
G1 X128.895 Y194.715 E5.70318
G1 X128.512 Y195.15 E5.72245
G1 X128.395 Y195.267 E5.72796
G1 X127.939 Y195.666 E5.74811
G1 X127.434 Y196.002 E5.76828
G1 X126.89 Y196.269 E5.78844
G1 X126.315 Y196.462 E5.80861
G1 X125.72 Y196.578 E5.82877
G1 X125.142 Y196.614 E5.84804
G1 X118.776 Y196.614 E6.05977
G1 X118.171 Y196.574 E6.07994
G1 X117.577 Y196.455 E6.10008
G1 X117.003 Y196.259 E6.12026
G1 X116.46 Y195.988 E6.14044
G1 X115.957 Y195.649 E6.16062
G1 X115.523 Y195.267 E6.17985
G1 X115.406 Y195.15 E6.18535
G1 X115.007 Y194.694 E6.2055
G1 X114.671 Y194.189 E6.22568
G1 X114.404 Y193.645 E6.24583
G1 X114.211 Y193.07 E6.26601
G1 X114.095 Y192.475 E6.28617
G1 X114.059 Y191.897 E6.30543
G1 X114.06 Y177.131 E6.79655
G1 X114.1 Y176.526 E6.81672
G1 X114.219 Y175.931 E6.8369
G1 X114.416 Y175.358 E6.85705
G1 X114.686 Y174.815 E6.87722
G1 X115.025 Y174.312 E6.8974
G1 X115.407 Y173.878 E6.91663
G1 X115.524 Y173.761 E6.92213
G1 X115.98 Y173.362 E6.94228
G1 X116.485 Y173.026 E6.96246
G1 X116.942 Y172.802 E6.97938
G1 X116.967 Y153.436 E7.6235
G1 X117.008 Y152.831 E7.64367
G1 X117.128 Y152.237 E7.66382
G1 X117.325 Y151.664 E7.68398
G1 X117.595 Y151.121 E7.70415
G1 X117.935 Y150.619 E7.72431
G1 X118.474 Y150.037 E7.7507
G1 X118.649 Y149.878 E7.75856
G1 X119.123 Y149.501 E7.7787
M204 S5000
M205 X30 Y30
G0 F3000 X119.372 Y149.815
M204 S500
M205 X20 Y20
G1 F1500 X119.872 Y149.522 E7.79798
G1 X120.407 Y149.301 E7.81723
G1 X120.977 Y149.153 E7.83682
G1 X121.22 Y149.108 E7.84504
G1 X121.796 Y149.042 E7.86432
G1 X122.375 Y149.056 E7.88358
G1 X123.042 Y149.173 E7.90611
G1 X123.265 Y149.231 E7.91377
G1 X123.814 Y149.415 E7.93303
G1 X124.333 Y149.673 E7.95231
G1 X124.811 Y150 E7.97157
G1 X125.24 Y150.39 E7.99085
G1 X125.568 Y150.776 E8.0077
G1 X125.73 Y150.992 E8.01668
G1 X126.045 Y151.478 E8.03594
G1 X126.29 Y152.003 E8.05521
G1 X126.46 Y152.557 E8.07449
G1 X126.552 Y153.129 E8.09376
G1 X126.57 Y153.51 E8.10644
G1 X126.578 Y173.079 E8.75731
G1 X126.828 Y173.169 E8.76615
G1 X127.341 Y173.438 E8.78541
G1 X127.812 Y173.775 E8.80468
G1 X128.108 Y174.044 E8.81798
G1 X128.225 Y174.161 E8.82348
G1 X128.605 Y174.598 E8.84274
G1 X128.922 Y175.083 E8.86201
G1 X129.169 Y175.607 E8.88128
G1 X129.341 Y176.16 E8.90054
G1 X129.436 Y176.732 E8.91983
G1 X129.455 Y177.13 E8.93308
G1 X129.459 Y191.896 E9.4242
G1 X129.419 Y192.474 E9.44347
G1 X129.3 Y193.041 E9.46274
G1 X129.104 Y193.586 E9.482
G1 X128.835 Y194.099 E9.50127
G1 X128.498 Y194.57 E9.52053
G1 X128.229 Y194.867 E9.53386
G1 X128.112 Y194.984 E9.53936
G1 X127.675 Y195.364 E9.55863
G1 X127.19 Y195.681 E9.5779
G1 X126.666 Y195.928 E9.59716
G1 X126.113 Y196.1 E9.61643
G1 X125.541 Y196.195 E9.63571
G1 X125.142 Y196.214 E9.649
G1 X118.776 Y196.214 E9.86073
G1 X118.198 Y196.174 E9.88
G1 X117.631 Y196.055 E9.89927
G1 X117.086 Y195.859 E9.91853
G1 X116.573 Y195.59 E9.9378
G1 X116.102 Y195.253 E9.95706
G1 X115.806 Y194.984 E9.97037
G1 X115.689 Y194.867 E9.97587
G1 X115.309 Y194.43 E9.99513
G1 X114.992 Y193.945 E10.0144
G1 X114.745 Y193.421 E10.03367
G1 X114.573 Y192.868 E10.05293
G1 X114.478 Y192.296 E10.07222
G1 X114.459 Y191.897 E10.0855
G1 X114.46 Y177.131 E10.57662
G1 X114.5 Y176.553 E10.59589
G1 X114.619 Y175.986 E10.61516
G1 X114.815 Y175.441 E10.63442
G1 X115.084 Y174.928 E10.65369
G1 X115.421 Y174.457 E10.67295
G1 X115.69 Y174.161 E10.68626
G1 X115.807 Y174.044 E10.69176
G1 X116.244 Y173.664 E10.71102
G1 X116.729 Y173.347 E10.73029
G1 X117.253 Y173.1 E10.74956
G1 X117.342 Y173.072 E10.75266
G1 X117.367 Y153.437 E11.40573
G1 X117.408 Y152.859 E11.425
G1 X117.528 Y152.292 E11.44427
G1 X117.724 Y151.747 E11.46354
G1 X117.994 Y151.234 E11.48282
G1 X118.332 Y150.764 E11.50207
G1 X118.743 Y150.333 E11.52188
G1 X118.918 Y150.174 E11.52975
G1 X119.372 Y149.815 E11.549
M204 S5000
M205 X30 Y30
G0 F3000 X119.62 Y150.131
M204 S500
M205 X20 Y20
G1 F1500 X120.098 Y149.857 E11.56732
G1 X120.611 Y149.655 E11.58566
G1 X121.05 Y149.547 E11.6007
G1 X121.293 Y149.502 E11.60892
G1 X121.841 Y149.441 E11.62726
G1 X122.391 Y149.46 E11.64556
G1 X122.942 Y149.56 E11.66418
G1 X123.165 Y149.618 E11.67185
G1 X123.686 Y149.795 E11.69015
G1 X124.177 Y150.046 E11.70849
G1 X124.626 Y150.365 E11.72681
G1 X125.025 Y150.745 E11.74514
G1 X125.248 Y151.016 E11.75681
G1 X125.41 Y151.232 E11.76579
G1 X125.708 Y151.696 E11.78413
G1 X125.935 Y152.197 E11.80242
G1 X126.088 Y152.727 E11.82077
G1 X126.17 Y153.51 E11.84696
G1 X126.178 Y173.362 E12.50724
G1 X126.226 Y173.373 E12.50888
G1 X126.741 Y173.569 E12.5272
G1 X127.222 Y173.837 E12.54552
G1 X127.825 Y174.327 E12.57136
G1 X127.942 Y174.444 E12.57686
G1 X128.302 Y174.861 E12.59519
G1 X128.599 Y175.325 E12.61351
G1 X128.825 Y175.828 E12.63185
G1 X128.976 Y176.358 E12.65018
G1 X129.055 Y177.13 E12.67599
G1 X129.059 Y191.896 E13.16711
G1 X129.019 Y192.446 E13.18545
G1 X128.9 Y192.984 E13.20378
G1 X128.705 Y193.499 E13.22209
G1 X128.437 Y193.98 E13.24041
G1 X127.946 Y194.584 E13.2663
G1 X127.829 Y194.701 E13.2718
G1 X127.412 Y195.061 E13.29012
G1 X126.948 Y195.358 E13.30845
G1 X126.445 Y195.584 E13.32679
G1 X125.915 Y195.735 E13.34512
G1 X125.142 Y195.814 E13.37096
G1 X118.776 Y195.814 E13.58269
G1 X118.226 Y195.774 E13.60104
G1 X117.688 Y195.655 E13.61936
G1 X117.173 Y195.459 E13.63769
G1 X116.692 Y195.191 E13.656
G1 X116.089 Y194.701 E13.68185
G1 X115.972 Y194.584 E13.68735
G1 X115.612 Y194.167 E13.70567
G1 X115.315 Y193.703 E13.724
G1 X115.089 Y193.2 E13.74234
G1 X114.938 Y192.67 E13.76067
G1 X114.859 Y191.897 E13.78651
G1 X114.86 Y177.131 E14.27763
G1 X114.9 Y176.581 E14.29597
G1 X115.019 Y176.043 E14.3143
G1 X115.215 Y175.528 E14.33262
G1 X115.483 Y175.047 E14.35094
G1 X115.973 Y174.444 E14.37678
G1 X116.09 Y174.327 E14.38228
G1 X116.507 Y173.967 E14.40061
G1 X116.971 Y173.67 E14.41893
G1 X117.474 Y173.444 E14.43727
G1 X117.742 Y173.368 E14.44654
G1 X117.767 Y153.437 E15.10945
G1 X117.808 Y152.888 E15.12776
G1 X117.927 Y152.35 E15.14608
G1 X118.124 Y151.835 E15.16442
G1 X118.392 Y151.354 E15.18274
G1 X118.728 Y150.917 E15.20107
G1 X119.012 Y150.63 E15.2145
G1 X119.187 Y150.471 E15.22236
G1 X119.62 Y150.131 E15.24067
M204 S5000
M205 X30 Y30
G0 F3000 X119.867 Y150.447
M204 S500
M205 X20 Y20
G1 F1500 X120.323 Y150.193 E15.25804
G1 X120.811 Y150.013 E15.27533
G1 X121.123 Y149.94 E15.28599
G1 X121.366 Y149.895 E15.29421
G1 X121.884 Y149.839 E15.31154
G1 X122.405 Y149.864 E15.32889
G1 X122.841 Y149.947 E15.34365
G1 X123.064 Y150.005 E15.35132
G1 X123.557 Y150.175 E15.36866
G1 X124.018 Y150.418 E15.38599
G1 X124.436 Y150.728 E15.4033
G1 X124.928 Y151.256 E15.42731
G1 X125.09 Y151.472 E15.43629
G1 X125.37 Y151.912 E15.45363
G1 X125.579 Y152.389 E15.47095
G1 X125.713 Y152.893 E15.4883
G1 X125.77 Y153.511 E15.50894
G1 X125.779 Y173.682 E16.17983
G1 X126.165 Y173.773 E16.19302
G1 X126.648 Y173.968 E16.21035
G1 X127.096 Y174.234 E16.22767
G1 X127.542 Y174.61 E16.24708
G1 X127.659 Y174.727 E16.25258
G1 X127.998 Y175.123 E16.26992
G1 X128.273 Y175.565 E16.28723
G1 X128.477 Y176.045 E16.30458
G1 X128.605 Y176.55 E16.32191
G1 X128.655 Y177.13 E16.34127
G1 X128.659 Y191.896 E16.83239
G1 X128.619 Y192.416 E16.84973
G1 X128.5 Y192.923 E16.86706
G1 X128.306 Y193.406 E16.88437
G1 X128.039 Y193.854 E16.90171
G1 X127.663 Y194.301 E16.92114
G1 X127.546 Y194.418 E16.92664
G1 X127.15 Y194.757 E16.94398
G1 X126.708 Y195.032 E16.9613
G1 X126.228 Y195.236 E16.97864
G1 X125.723 Y195.364 E16.99597
G1 X125.142 Y195.414 E17.01537
G1 X118.776 Y195.414 E17.2271
G1 X118.256 Y195.374 E17.24445
G1 X117.749 Y195.255 E17.26177
G1 X117.266 Y195.06 E17.27909
G1 X116.818 Y194.794 E17.29642
G1 X116.372 Y194.418 E17.31582
G1 X116.255 Y194.301 E17.32133
G1 X115.916 Y193.905 E17.33867
G1 X115.641 Y193.463 E17.35598
G1 X115.437 Y192.983 E17.37333
G1 X115.309 Y192.478 E17.39065
G1 X115.259 Y191.897 E17.41005
G1 X115.26 Y177.131 E17.90117
G1 X115.3 Y176.611 E17.91852
G1 X115.419 Y176.104 E17.93584
G1 X115.614 Y175.62 E17.95319
G1 X115.881 Y175.173 E17.97051
G1 X116.256 Y174.727 E17.98989
G1 X116.373 Y174.61 E17.99539
G1 X116.769 Y174.271 E18.01273
G1 X117.211 Y173.996 E18.03005
G1 X117.691 Y173.792 E18.04739
G1 X118.141 Y173.678 E18.06283
G1 X118.167 Y153.438 E18.73602
G1 X118.208 Y152.918 E18.75337
G1 X118.327 Y152.411 E18.77069
G1 X118.523 Y151.928 E18.78802
G1 X118.79 Y151.48 E18.80537
G1 X119.281 Y150.926 E18.82999
G1 X119.456 Y150.767 E18.83786
G1 X119.867 Y150.447 E18.85518
M204 S5000
M205 X30 Y30
G0 F3000 X120.113 Y150.764
M204 S500
M205 X20 Y20
G1 F1500 X120.544 Y150.533 E18.87145
G1 X121.196 Y150.333 E18.89413
G1 X121.439 Y150.288 E18.90235
G1 X121.926 Y150.239 E18.91863
G1 X122.414 Y150.269 E18.93489
G1 X122.74 Y150.335 E18.94595
G1 X122.963 Y150.393 E18.95362
G1 X123.425 Y150.554 E18.96989
G1 X123.855 Y150.788 E18.98617
G1 X124.241 Y151.09 E19.00247
G1 X124.608 Y151.496 E19.02067
G1 X124.77 Y151.712 E19.02965
G1 X125.031 Y152.126 E19.04593
G1 X125.221 Y152.577 E19.06221
G1 X125.335 Y153.053 E19.07849
G1 X125.37 Y153.511 E19.09377
G1 X125.379 Y174.034 E19.77636
G1 X125.626 Y174.054 E19.78461
G1 X126.101 Y174.173 E19.80089
G1 X126.55 Y174.367 E19.81716
G1 X126.962 Y174.632 E19.83345
G1 X127.259 Y174.893 E19.8466
G1 X127.376 Y175.01 E19.85211
G1 X127.693 Y175.383 E19.86839
G1 X127.945 Y175.803 E19.88468
G1 X128.125 Y176.258 E19.90095
G1 X128.229 Y176.736 E19.91722
G1 X128.255 Y177.13 E19.93036
G1 X128.259 Y191.896 E20.42148
G1 X128.219 Y192.384 E20.43776
G1 X128.101 Y192.859 E20.45404
G1 X127.906 Y193.308 E20.47032
G1 X127.642 Y193.72 E20.4866
G1 X127.38 Y194.018 E20.4998
G1 X127.263 Y194.135 E20.5053
G1 X126.89 Y194.452 E20.52158
G1 X126.47 Y194.704 E20.53787
G1 X126.015 Y194.884 E20.55414
G1 X125.537 Y194.988 E20.57042
G1 X125.142 Y195.014 E20.58358
G1 X118.776 Y195.014 E20.79532
G1 X118.288 Y194.974 E20.8116
G1 X117.813 Y194.855 E20.82789
G1 X117.364 Y194.661 E20.84416
G1 X116.952 Y194.396 E20.86045
G1 X116.655 Y194.135 E20.8736
G1 X116.538 Y194.018 E20.8791
G1 X116.221 Y193.645 E20.89538
G1 X115.969 Y193.225 E20.91167
G1 X115.789 Y192.77 E20.92795
G1 X115.685 Y192.292 E20.94422
G1 X115.659 Y191.897 E20.95739
G1 X115.66 Y177.131 E21.4485
G1 X115.7 Y176.643 E21.46479
G1 X115.819 Y176.168 E21.48108
G1 X116.013 Y175.719 E21.49735
G1 X116.278 Y175.307 E21.51364
G1 X116.539 Y175.01 E21.52679
G1 X116.656 Y174.893 E21.53229
G1 X117.029 Y174.576 E21.54857
G1 X117.449 Y174.324 E21.56486
G1 X117.904 Y174.144 E21.58114
G1 X118.382 Y174.04 E21.59741
G1 X118.541 Y174.03 E21.60271
G1 X118.567 Y153.438 E22.2876
G1 X118.608 Y152.95 E22.30389
G1 X118.727 Y152.476 E22.32014
G1 X118.922 Y152.027 E22.33642
G1 X119.187 Y151.615 E22.35272
G1 X119.55 Y151.222 E22.37051
G1 X119.725 Y151.063 E22.37838
G1 X120.113 Y150.764 E22.39467
M204 S5000
M205 X30 Y30
G0 F3000 X120.356 Y151.083
M204 S500
M205 X20 Y20
G1 F1500 X120.762 Y150.875 E22.40984
G1 X121.269 Y150.726 E22.42742
G1 X121.512 Y150.681 E22.43564
G1 X121.965 Y150.638 E22.45077
G1 X122.639 Y150.722 E22.47336
G1 X122.862 Y150.78 E22.48103
G1 X123.292 Y150.933 E22.49621
G1 X123.688 Y151.158 E22.51135
G1 X124.038 Y151.449 E22.52649
G1 X124.288 Y151.736 E22.53915
G1 X124.45 Y151.952 E22.54813
G1 X124.69 Y152.339 E22.56328
G1 X124.86 Y152.762 E22.57844
G1 X124.952 Y153.208 E22.59359
G1 X124.97 Y153.511 E22.60368
G1 X124.979 Y174.414 E23.29892
G1 X125.138 Y174.414 E23.30421
G1 X125.592 Y174.454 E23.31937
G1 X126.032 Y174.572 E23.33452
G1 X126.444 Y174.766 E23.34967
G1 X126.976 Y175.176 E23.372
G1 X127.093 Y175.293 E23.37751
G1 X127.386 Y175.642 E23.39266
G1 X127.613 Y176.037 E23.40782
G1 X127.768 Y176.465 E23.42296
G1 X127.855 Y177.13 E23.44526
G1 X127.859 Y191.896 E23.93638
G1 X127.819 Y192.35 E23.95154
G1 X127.701 Y192.79 E23.96669
G1 X127.507 Y193.203 E23.98187
G1 X127.097 Y193.735 E24.00421
G1 X126.98 Y193.852 E24.00971
G1 X126.631 Y194.145 E24.02487
G1 X126.236 Y194.372 E24.04002
G1 X125.808 Y194.527 E24.05516
G1 X125.142 Y194.614 E24.0775
G1 X118.776 Y194.614 E24.28923
G1 X118.322 Y194.574 E24.30439
G1 X117.882 Y194.456 E24.31954
G1 X117.47 Y194.262 E24.33469
G1 X116.938 Y193.852 E24.35703
G1 X116.821 Y193.735 E24.36253
G1 X116.528 Y193.386 E24.37769
