;FLAVOR:Marlin
;TIME:4145
;Filament used: 4.76088m
;Layer height: 0.24
;Generated with Cura_SteamEngine 3.0.2
M190 S60
M104 S200
M109 S200
M82 ; absolute extrusion mode
G21 ;metric values
G90 ;absolute Positioning
G28 ; home all axes
G1 Z5 F3000 ; lift
G1 X20 Y2 F1500 ; avoid binder clips
G1 Z0.2 F3000 ; get ready to prime
G92 E0 ; reset extrusion distance
G1 X120 E10 F600 ; prime nozzle
G1 X150 F5000 ; quick wipe
;LAYER_COUNT:30
;LAYER:0
M107
M204 S5000
M205 X30 Y30
G0 F3000 X127.778 Y90.642 Z0.2
M204 S500
M205 X20 Y20
;TYPE:SKIRT
G1 F1500 X128.169 Y90.145 E0.02103
G1 X128.618 Y89.701 E0.04203
G1 X129.151 Y89.297 E0.06428
G1 X129.449 Y89.101 E0.07614
G1 X129.998 Y88.787 E0.09718
G1 X130.583 Y88.546 E0.11822
G1 X131.193 Y88.38 E0.13925
G1 X131.819 Y88.292 E0.16027
G1 X132.186 Y88.278 E0.17249
G1 X136.123 Y88.269 E0.30343
G1 X136.754 Y88.308 E0.32446
G1 X137.375 Y88.425 E0.34548
G1 X137.976 Y88.621 E0.36651
G1 X138.548 Y88.89 E0.38753
G1 X139.081 Y89.23 E0.40856
G1 X139.67 Y89.733 E0.43432
G1 X139.787 Y89.85 E0.43982
G1 X139.851 Y89.923 E0.44305
G1 X139.914 Y89.849 E0.44628
G1 X140.031 Y89.732 E0.45179
G1 X140.506 Y89.315 E0.47281
G1 X141.029 Y88.96 E0.49383
G1 X141.593 Y88.674 E0.51487
G1 X142.188 Y88.462 E0.53587
G1 X142.806 Y88.326 E0.55692
G1 X143.584 Y88.268 E0.58287
G1 X146.451 Y88.278 E0.67823
G1 X147.082 Y88.32 E0.69926
G1 X147.703 Y88.442 E0.72031
G1 X148.069 Y88.553 E0.73303
G1 X148.306 Y88.635 E0.74137
G1 X148.889 Y88.879 E0.76239
G1 X149.381 Y89.163 E0.78129
G1 X149.481 Y89.096 E0.78529
G1 X150.028 Y88.822 E0.80564
G1 X150.367 Y88.677 E0.8179
G1 X150.962 Y88.466 E0.8389
G1 X151.58 Y88.331 E0.85994
G1 X152.327 Y88.274 E0.88486
G1 X154.807 Y88.271 E0.96734
G1 X155.438 Y88.31 E0.98837
G1 X156.059 Y88.429 E1.0094
G1 X156.66 Y88.625 E1.03042
G1 X157.231 Y88.895 E1.05143
G1 X157.764 Y89.235 E1.07246
G1 X158.349 Y89.735 E1.09805
G1 X158.466 Y89.852 E1.10356
G1 X158.785 Y90.215 E1.11963
G1 X159.095 Y89.852 E1.13551
G1 X159.212 Y89.735 E1.14101
G1 X159.687 Y89.318 E1.16203
G1 X160.21 Y88.963 E1.18306
G1 X160.774 Y88.677 E1.20409
G1 X161.369 Y88.465 E1.2251
G1 X161.987 Y88.329 E1.24615
G1 X162.755 Y88.271 E1.27176
G1 X166.899 Y88.277 E1.40959
G1 X167.53 Y88.318 E1.43062
G1 X168.151 Y88.438 E1.45166
G1 X168.467 Y88.532 E1.46263
G1 X168.702 Y88.61 E1.47086
G1 X169.288 Y88.846 E1.49187
G1 X169.84 Y89.155 E1.51291
G1 X170.348 Y89.531 E1.53393
G1 X170.873 Y90.043 E1.55832
G1 X171.033 Y90.224 E1.56636
G1 X171.421 Y90.724 E1.58741
G1 X171.743 Y91.268 E1.60843
G1 X171.993 Y91.848 E1.62944
G1 X172.098 Y92.174 E1.64083
G1 X172.162 Y92.4 E1.64864
G1 X172.295 Y93.018 E1.66967
G1 X172.351 Y93.762 E1.69449
G1 X172.346 Y206.265 E5.43635
G1 X172.306 Y206.896 E5.45738
G1 X172.187 Y207.517 E5.47841
G1 X172.059 Y207.934 E5.49292
G1 X171.974 Y208.174 E5.50139
G1 X171.726 Y208.756 E5.52243
G1 X171.406 Y209.301 E5.54345
G1 X171.02 Y209.802 E5.56448
G1 X170.629 Y210.2 E5.58304
G1 X170.437 Y210.375 E5.59168
G1 X169.944 Y210.771 E5.61271
G1 X169.405 Y211.101 E5.63373
G1 X168.828 Y211.36 E5.65477
G1 X168.224 Y211.545 E5.67578
G1 X167.601 Y211.652 E5.6968
G1 X167.125 Y211.68 E5.71266
G1 X162.803 Y211.728 E5.85642
G1 X162.171 Y211.695 E5.87747
G1 X161.549 Y211.582 E5.8985
G1 X160.946 Y211.392 E5.91953
G1 X160.372 Y211.128 E5.94054
G1 X159.836 Y210.793 E5.96156
G1 X159.211 Y210.264 E5.9888
G1 X159.094 Y210.147 E5.9943
G1 X158.776 Y209.785 E6.01033
G1 X158.466 Y210.148 E6.0262
G1 X158.349 Y210.265 E6.03171
G1 X157.874 Y210.682 E6.05273
G1 X157.351 Y211.037 E6.07375
G1 X156.787 Y211.323 E6.09479
G1 X156.192 Y211.535 E6.11579
G1 X155.574 Y211.671 E6.13684
G1 X154.743 Y211.729 E6.16455
G1 X152.09 Y211.692 E6.25279
G1 X151.46 Y211.643 E6.27381
G1 X150.841 Y211.515 E6.29484
G1 X150.243 Y211.31 E6.31586
G1 X149.676 Y211.031 E6.33688
G1 X149.379 Y210.832 E6.34877
G1 X149.013 Y211.057 E6.36306
G1 X148.311 Y211.362 E6.38852
G1 X148.072 Y211.445 E6.39693
G1 X147.463 Y211.615 E6.41796
G1 X146.838 Y211.706 E6.43897
G1 X146.449 Y211.722 E6.45192
G1 X143.585 Y211.732 E6.54717
G1 X142.954 Y211.694 E6.5682
G1 X142.333 Y211.577 E6.58922
G1 X141.732 Y211.383 E6.61022
G1 X141.16 Y211.114 E6.63125
G1 X140.626 Y210.775 E6.65228
G1 X140.032 Y210.268 E6.67826
G1 X139.915 Y210.151 E6.68376
G1 X139.848 Y210.075 E6.68713
G1 X139.77 Y210.166 E6.69112
G1 X139.652 Y210.283 E6.69665
G1 X139.176 Y210.698 E6.71765
G1 X138.652 Y211.051 E6.73866
G1 X138.086 Y211.334 E6.75971
G1 X137.49 Y211.544 E6.78073
G1 X136.872 Y211.677 E6.80175
G1 X136.094 Y211.732 E6.82769
G1 X132.102 Y211.702 E6.96047
G1 X131.472 Y211.657 E6.98148
G1 X130.852 Y211.533 E7.00251
G1 X130.253 Y211.332 E7.02352
G1 X129.684 Y211.057 E7.04454
G1 X128.916 Y210.524 E7.07564
G1 X128.635 Y210.287 E7.08786
G1 X128.179 Y209.85 E7.10887
G1 X127.781 Y209.358 E7.12992
G1 X127.449 Y208.821 E7.15092
G1 X127.187 Y208.245 E7.17196
G1 X127.017 Y207.712 E7.19057
G1 X126.958 Y207.483 E7.19844
G1 X126.839 Y206.863 E7.21943
G1 X126.8 Y206.236 E7.24033
G1 X126.804 Y93.735 E10.98213
G1 X126.844 Y93.104 E11.00316
G1 X126.963 Y92.483 E11.02419
G1 X127.106 Y92.025 E11.04014
G1 X127.201 Y91.764 E11.04938
G1 X127.454 Y91.185 E11.0704
G1 X127.778 Y90.642 E11.09143
M204 S5000
M205 X30 Y30
G0 F3000 X128.136 Y90.828
M204 S500
M205 X20 Y20
G1 F1500 X128.517 Y90.356 E11.1116
G1 X128.956 Y89.938 E11.13177
G1 X129.371 Y89.631 E11.14893
G1 X129.669 Y89.435 E11.1608
G1 X130.197 Y89.136 E11.18098
G1 X130.759 Y88.909 E11.20114
G1 X131.346 Y88.757 E11.22131
G1 X132.186 Y88.678 E11.24937
G1 X136.123 Y88.669 E11.38031
G1 X136.729 Y88.708 E11.40051
G1 X137.323 Y88.825 E11.42065
G1 X137.897 Y89.02 E11.44081
G1 X138.441 Y89.289 E11.46099
G1 X138.944 Y89.627 E11.48115
G1 X139.387 Y90.016 E11.50076
G1 X139.504 Y90.133 E11.50626
G1 X139.849 Y90.527 E11.52368
G1 X140.197 Y90.132 E11.54119
G1 X140.314 Y90.015 E11.54669
G1 X140.77 Y89.616 E11.56685
G1 X141.275 Y89.28 E11.58702
G1 X141.819 Y89.013 E11.60718
G1 X142.394 Y88.82 E11.62735
G1 X142.989 Y88.704 E11.64751
G1 X143.583 Y88.668 E11.6673
G1 X146.45 Y88.678 E11.76266
G1 X147.055 Y88.72 E11.78283
G1 X147.938 Y88.931 E11.81303
G1 X148.175 Y89.013 E11.82137
G1 X148.734 Y89.248 E11.84154
G1 X149.257 Y89.555 E11.86171
G1 X149.373 Y89.646 E11.86661
G1 X149.79 Y89.381 E11.88305
G1 X150.185 Y89.19 E11.89764
G1 X150.524 Y89.045 E11.9099
G1 X151.096 Y88.843 E11.93008
G1 X151.689 Y88.719 E11.95023
G1 X152.327 Y88.674 E11.9715
G1 X154.807 Y88.671 E12.05399
G1 X155.412 Y88.71 E12.07415
G1 X156.007 Y88.829 E12.09433
G1 X156.581 Y89.024 E12.11449
G1 X157.124 Y89.294 E12.13466
G1 X157.627 Y89.632 E12.15482
G1 X158.066 Y90.018 E12.17426
G1 X158.183 Y90.135 E12.17977
G1 X158.582 Y90.591 E12.19992
G1 X158.78 Y90.889 E12.21182
G1 X158.996 Y90.569 E12.22466
G1 X159.378 Y90.135 E12.24389
G1 X159.495 Y90.018 E12.24939
G1 X159.951 Y89.619 E12.26955
G1 X160.456 Y89.283 E12.28972
G1 X161 Y89.016 E12.30988
G1 X161.575 Y88.823 E12.33005
G1 X162.17 Y88.707 E12.35021
G1 X162.755 Y88.671 E12.36971
G1 X166.899 Y88.677 E12.50754
G1 X167.504 Y88.718 E12.5277
G1 X168.341 Y88.911 E12.55627
G1 X168.576 Y88.989 E12.56451
G1 X169.138 Y89.218 E12.58469
G1 X169.664 Y89.518 E12.60483
G1 X170.147 Y89.885 E12.62501
G1 X170.573 Y90.308 E12.64498
G1 X170.733 Y90.489 E12.65301
G1 X171.104 Y90.969 E12.67319
G1 X171.409 Y91.493 E12.69336
G1 X171.713 Y92.283 E12.72151
G1 X171.777 Y92.509 E12.72932
G1 X171.903 Y93.102 E12.74948
G1 X171.951 Y93.762 E12.77149
G1 X171.946 Y206.265 E16.51336
G1 X171.906 Y206.87 E16.53353
G1 X171.787 Y207.465 E16.55371
G1 X171.682 Y207.801 E16.56542
G1 X171.597 Y208.041 E16.57388
G1 X171.357 Y208.598 E16.59406
G1 X171.047 Y209.118 E16.61419
G1 X170.67 Y209.593 E16.63436
G1 X170.36 Y209.905 E16.64899
G1 X170.168 Y210.08 E16.65763
G1 X169.694 Y210.458 E16.6778
G1 X169.174 Y210.77 E16.69797
G1 X168.618 Y211.011 E16.71812
G1 X168.035 Y211.177 E16.73828
G1 X167.435 Y211.265 E16.75845
G1 X167.12 Y211.28 E16.76894
G1 X162.798 Y211.328 E16.9127
G1 X162.193 Y211.294 E16.93285
G1 X161.597 Y211.182 E16.95302
G1 X161.021 Y210.992 E16.9732
G1 X160.475 Y210.728 E16.99337
G1 X159.969 Y210.394 E17.01353
G1 X159.494 Y209.981 E17.03447
G1 X159.377 Y209.864 E17.03997
G1 X158.978 Y209.408 E17.06012
G1 X158.781 Y209.111 E17.07198
G1 X158.565 Y209.431 E17.08482
G1 X158.183 Y209.865 E17.10405
G1 X158.066 Y209.982 E17.10955
G1 X157.61 Y210.381 E17.12971
G1 X157.105 Y210.717 E17.14988
G1 X156.561 Y210.984 E17.17004
G1 X155.986 Y211.177 E17.19021
G1 X155.391 Y211.293 E17.21037
G1 X154.749 Y211.329 E17.23176
G1 X152.096 Y211.292 E17.32001
G1 X151.491 Y211.243 E17.34019
G1 X150.899 Y211.116 E17.36033
G1 X150.328 Y210.911 E17.38051
G1 X149.789 Y210.634 E17.40067
G1 X149.377 Y210.351 E17.41729
G1 X149.281 Y210.427 E17.42136
G1 X148.76 Y210.737 E17.44153
G1 X148.18 Y210.984 E17.46249
G1 X147.941 Y211.067 E17.47091
G1 X147.356 Y211.228 E17.49109
G1 X146.756 Y211.311 E17.51124
G1 X146.448 Y211.322 E17.52149
G1 X143.584 Y211.332 E17.61674
G1 X142.979 Y211.294 E17.63691
G1 X142.384 Y211.177 E17.65707
G1 X141.81 Y210.983 E17.67723
G1 X141.266 Y210.715 E17.6974
G1 X140.762 Y210.377 E17.71758
G1 X140.315 Y209.985 E17.73736
G1 X140.198 Y209.868 E17.74286
G1 X139.851 Y209.472 E17.76037
G1 X139.489 Y209.882 E17.77856
G1 X139.371 Y209.999 E17.78409
G1 X138.913 Y210.396 E17.80425
G1 X138.407 Y210.73 E17.82441
G1 X137.861 Y210.995 E17.8446
G1 X137.286 Y211.185 E17.86474
G1 X136.69 Y211.298 E17.88492
G1 X136.097 Y211.332 E17.90467
G1 X132.105 Y211.302 E18.03745
G1 X131.501 Y211.257 E18.0576
G1 X130.907 Y211.134 E18.07777
G1 X130.335 Y210.933 E18.09794
G1 X129.794 Y210.659 E18.11811
G1 X129.174 Y210.218 E18.14341
G1 X128.893 Y209.981 E18.15564
G1 X128.457 Y209.561 E18.17577
G1 X128.079 Y209.086 E18.19597
G1 X127.767 Y208.566 E18.21613
G1 X127.526 Y208.01 E18.23629
G1 X127.404 Y207.613 E18.2501
G1 X127.345 Y207.384 E18.25797
G1 X127.233 Y206.788 E18.27814
G1 X127.2 Y206.236 E18.29653
G1 X127.204 Y93.735 E22.03833
G1 X127.244 Y93.13 E22.0585
G1 X127.363 Y92.535 E22.07868
G1 X127.481 Y92.162 E22.09169
G1 X127.576 Y91.901 E22.10093
G1 X127.821 Y91.346 E22.12111
G1 X128.136 Y90.828 E22.14127
M204 S5000
M205 X30 Y30
G0 F3000 X128.493 Y91.016
M204 S500
M205 X20 Y20
G1 F1500 X128.864 Y90.571 E22.16054
G1 X129.292 Y90.181 E22.1798
G1 X129.591 Y89.965 E22.19207
G1 X129.889 Y89.769 E22.20393
G1 X130.394 Y89.485 E22.2232
G1 X130.933 Y89.273 E22.24246
G1 X131.496 Y89.137 E22.26173
G1 X132.187 Y89.078 E22.28479
G1 X136.124 Y89.069 E22.41574
G1 X136.702 Y89.108 E22.43501
G1 X137.27 Y89.225 E22.4543
G1 X137.815 Y89.42 E22.47355
G1 X138.329 Y89.688 E22.49283
G1 X138.801 Y90.024 E22.5121
G1 X139.104 Y90.299 E22.52571
G1 X139.221 Y90.416 E22.53121
G1 X139.601 Y90.853 E22.55047
G1 X139.848 Y91.231 E22.56549
G1 X139.874 Y91.182 E22.56734
G1 X140.211 Y90.711 E22.5866
G1 X140.48 Y90.415 E22.5999
G1 X140.597 Y90.298 E22.60541
G1 X141.034 Y89.918 E22.62467
G1 X141.519 Y89.601 E22.64394
G1 X142.043 Y89.354 E22.66321
G1 X142.596 Y89.182 E22.68247
G1 X143.168 Y89.087 E22.70175
G1 X143.582 Y89.068 E22.71554
G1 X146.449 Y89.078 E22.81089
G1 X147.026 Y89.12 E22.83014
G1 X147.807 Y89.309 E22.85686
G1 X148.044 Y89.391 E22.8652
G1 X148.577 Y89.618 E22.88447
G1 X149.074 Y89.916 E22.90375
G1 X149.369 Y90.153 E22.91633
G1 X149.599 Y89.969 E22.92613
G1 X150.342 Y89.557 E22.95439
G1 X150.681 Y89.412 E22.96665
G1 X151.228 Y89.222 E22.98591
G1 X151.796 Y89.108 E23.00518
G1 X152.328 Y89.074 E23.02291
G1 X154.808 Y89.071 E23.10539
G1 X155.386 Y89.11 E23.12466
G1 X155.953 Y89.229 E23.14393
G1 X156.498 Y89.424 E23.16318
G1 X157.012 Y89.692 E23.18246
G1 X157.483 Y90.029 E23.20172
G1 X157.783 Y90.301 E23.21519
G1 X157.9 Y90.418 E23.2207
G1 X158.28 Y90.855 E23.23996
G1 X158.597 Y91.34 E23.25923
G1 X158.777 Y91.722 E23.27327
G1 X158.786 Y91.698 E23.27413
G1 X159.055 Y91.185 E23.29339
G1 X159.393 Y90.714 E23.31267
G1 X159.661 Y90.418 E23.32596
G1 X159.778 Y90.301 E23.33146
G1 X160.215 Y89.921 E23.35072
G1 X160.7 Y89.604 E23.36999
G1 X161.224 Y89.357 E23.38926
G1 X161.777 Y89.185 E23.40852
G1 X162.349 Y89.09 E23.42781
G1 X162.754 Y89.071 E23.44129
G1 X166.898 Y89.077 E23.57912
G1 X167.476 Y89.118 E23.59839
G1 X168.215 Y89.291 E23.62364
G1 X168.45 Y89.369 E23.63187
G1 X168.986 Y89.589 E23.65114
G1 X169.487 Y89.88 E23.67041
G1 X169.942 Y90.238 E23.68967
G1 X170.274 Y90.573 E23.70536
G1 X170.434 Y90.754 E23.71339
G1 X170.787 Y91.214 E23.73268
G1 X171.073 Y91.717 E23.75192
G1 X171.328 Y92.392 E23.77592
G1 X171.392 Y92.618 E23.78373
G1 X171.511 Y93.185 E23.803
G1 X171.551 Y93.762 E23.82224
G1 X171.546 Y206.265 E27.56411
G1 X171.506 Y206.843 E27.58338
G1 X171.305 Y207.667 E27.61159
G1 X171.22 Y207.907 E27.62005
G1 X170.989 Y208.439 E27.63935
G1 X170.688 Y208.933 E27.65859
G1 X170.321 Y209.382 E27.67787
G1 X170.09 Y209.609 E27.68864
G1 X169.898 Y209.784 E27.69729
G1 X169.444 Y210.144 E27.71656
G1 X168.945 Y210.438 E27.73582
G1 X168.41 Y210.66 E27.75509
G1 X167.85 Y210.807 E27.77434
G1 X167.116 Y210.88 E27.79888
G1 X162.794 Y210.928 E27.94263
G1 X162.215 Y210.894 E27.96193
G1 X161.647 Y210.781 E27.98119
G1 X161.1 Y210.592 E28.00044
G1 X160.584 Y210.328 E28.01971
G1 X160.109 Y209.996 E28.03899
G1 X159.777 Y209.698 E28.05383
G1 X159.66 Y209.581 E28.05933
G1 X159.28 Y209.144 E28.07859
G1 X158.963 Y208.659 E28.09786
G1 X158.784 Y208.278 E28.11186
G1 X158.775 Y208.302 E28.11272
G1 X158.506 Y208.815 E28.13198
G1 X158.169 Y209.286 E28.15125
G1 X157.9 Y209.582 E28.16455
G1 X157.783 Y209.699 E28.17005
G1 X157.346 Y210.079 E28.18931
G1 X156.861 Y210.396 E28.20858
G1 X156.337 Y210.643 E28.22785
G1 X155.784 Y210.815 E28.24711
G1 X155.212 Y210.91 E28.2664
G1 X154.754 Y210.929 E28.28165
G1 X152.101 Y210.892 E28.36989
G1 X151.524 Y210.844 E28.38915
G1 X150.959 Y210.717 E28.40841
G1 X150.417 Y210.513 E28.42767
G1 X149.907 Y210.237 E28.44696
G1 X149.578 Y210.005 E28.46035
G1 X149.374 Y209.846 E28.46895
G1 X149.011 Y210.127 E28.48422
G1 X148.509 Y210.416 E28.50349
G1 X148.049 Y210.607 E28.52005
G1 X147.81 Y210.69 E28.52847
G1 X147.251 Y210.841 E28.54773
G1 X146.447 Y210.922 E28.5746
G1 X143.583 Y210.932 E28.66986
G1 X143.005 Y210.894 E28.68913
G1 X142.437 Y210.777 E28.70841
G1 X141.891 Y210.583 E28.72769
G1 X141.377 Y210.316 E28.74695
G1 X140.905 Y209.98 E28.76622
G1 X140.598 Y209.702 E28.78
G1 X140.481 Y209.585 E28.7855
G1 X140.101 Y209.148 E28.80476
G1 X139.852 Y208.768 E28.81987
G1 X139.826 Y208.818 E28.82175
G1 X139.489 Y209.289 E28.84101
G1 X139.207 Y209.597 E28.8549
G1 X139.089 Y209.714 E28.86042
G1 X138.651 Y210.093 E28.87969
G1 X138.164 Y210.408 E28.89898
G1 X137.639 Y210.652 E28.91824
G1 X137.085 Y210.822 E28.93751
G1 X136.513 Y210.915 E28.95678
G1 X136.1 Y210.932 E28.97053
G1 X132.108 Y210.902 E29.10331
G1 X131.531 Y210.858 E29.12256
G1 X130.965 Y210.734 E29.14183
G1 X130.421 Y210.534 E29.16111
G1 X129.91 Y210.261 E29.18038
G1 X129.432 Y209.913 E29.20004
G1 X129.151 Y209.676 E29.21227
G1 X128.735 Y209.272 E29.23156
G1 X128.379 Y208.816 E29.2508
G1 X128.088 Y208.315 E29.27007
G1 X127.792 Y207.513 E29.2985
G1 X127.733 Y207.284 E29.30637
G1 X127.627 Y206.714 E29.32565
G1 X127.6 Y206.236 E29.34157
G1 X127.604 Y93.735 E33.08337
G1 X127.644 Y93.157 E33.10264
G1 X127.763 Y92.59 E33.12191
G1 X127.857 Y92.298 E33.13211
G1 X127.952 Y92.037 E33.14135
G1 X128.188 Y91.508 E33.16062
G1 X128.493 Y91.016 E33.17987
M204 S5000
M205 X30 Y30
G0 F3000 X128.85 Y91.207
M204 S500
M205 X20 Y20
G1 F1500 X129.209 Y90.79 E33.19817
G1 X129.811 Y90.299 E33.22401
G1 X130.109 Y90.103 E33.23587
G1 X130.59 Y89.835 E33.25419
G1 X131.105 Y89.638 E33.27253
G1 X131.643 Y89.519 E33.29085
G1 X132.188 Y89.478 E33.30903
G1 X136.125 Y89.469 E33.43998
G1 X136.675 Y89.508 E33.45832
G1 X137.213 Y89.625 E33.47663
G1 X137.729 Y89.82 E33.49497
G1 X138.211 Y90.087 E33.5133
G1 X138.821 Y90.582 E33.53943
G1 X138.938 Y90.699 E33.54493
G1 X139.298 Y91.116 E33.56326
G1 X139.595 Y91.58 E33.58158
G1 X139.821 Y92.083 E33.59992
G1 X139.851 Y92.187 E33.60352
G1 X140.005 Y91.782 E33.61793
G1 X140.273 Y91.301 E33.63624
G1 X140.763 Y90.698 E33.66209
G1 X140.88 Y90.581 E33.66759
G1 X141.297 Y90.221 E33.68591
G1 X141.761 Y89.924 E33.70424
G1 X142.264 Y89.698 E33.72258
